X:1
T:Cantique de Siméon, 667 D
T:Louis Bourgeois & Claude Goudimel
T:Cantique de Siméon, 667 D
T:Public Domain
C:Louis Bourgeois & Claude Goudimel
Z:Public Domain
%%score ( 1 2 ) 3
L:1/8
M:none
K:F
V:1 treble 
V:2 treble 
V:3 bass 
V:1
 [Ac]4 [Bd]2 [Ac]2 G2 G2 A2- A2 G4 | [GB]4 [FA]2 F2 [EG]2 [EG]2 F4 | %2
 F4 [Fc]2 [Fc]2 [Fd]2 [Fc]2 [FB]4 [FA]4 | [Gc]4 [FA]2 [FB]2 [FA]2 [EG]2 [DF]4 | %4
 [DF]4 D2 [CE]2 [CF]2 [=B,D]2 C4 | [DF]4 [DG]2 [FA]2 [FB]2 [FA]2 F2 E2 F8 |] %6
V:2
 x8 B4 ^F2 x6 | x16 | x20 | x16 | x16 | x12 G4 F8 |] %6
V:3
 [F,F]4 [B,,F]2 [F,F]2 [G,D]4 [D,D]4 [G,,D]4 | [G,,D]4 [D,D]2 [D,A,]2 [C,C]2 [C,C]2 [F,,C]4 | %2
 [F,C]4 [F,A,]2 [F,A,]2 [B,,B,]2 [F,A,]2 [B,,D]4 [F,C]4 | %3
 [C,E]4 [D,D]2 [B,,D]2 [F,C]2 [C,C]2 [D,A,]4 | %4
 [B,,B,]4 [B,,F,]2 [A,,A,]2 [F,,A,]2 [G,,G,]2 [C,G,]4 | %5
 [B,,B,]4 [G,,B,]2 [F,,C]2 [B,,D]2 [F,,C]2 [C,C]4 [F,,C]8 |] %6

